X: 1
P: Campbell's Frolic
M: 6/8
L: 1/8
K: G
z/D  | "G"G>AG "D7"A2d | "G"B3 G2d | "Em"g>fg "A7"eag | "D"f3 d2d | "G"g>fe dcB |
| "Am"A>BG "D7"FED | "G"G>AG "D7"A2d | "G"B3 G> :: ef | "G"g>fg "C"efg | "A7"a>ba "D7"fed |
| "Em"g>fg "A7"eag | "D"f3 d>ef | "G"g>fe dcB | "Am"A>BG "D7"FED | "G"G>AG "D7"A2d | "G"B3 G> :|
